X: 42089
T: Wandering Minstrel, The
R: jig
M: 6/8
K: Dmajor
|:B|Add BAF|Ade fdB|Add BAF|AFD EDE|
Add BAF|Ade fdB|AdB AFE|FDD D2:|
|:B|Ade ~f3|efg fdB|Ade f2e|fdB BAF|
Ade ~f3|efg fdA|~B3 AFE|FDD D2:|

